!!!!SEGMENT: pl-kk--kk-i-497--003_anonim--o-sacrum-convivium.krn
!!!cenid: 18xx:1338
!!!COM: Anonim
!!!COM-rismid: pe30004985
!!!CDT:
!!!CNT:
!!!OTL: O sacrum convivium
!!!PDT:
!!!AGN: Sacred
!!!SMS-siglum: PL-Kk
!!!SMS-shelfmark: Kk.I.497
!!!SMS-shelfwork: 003 W
!!!SMS-variant:
!!!SMS-altvar:
!!!NIFC-rismid: 1001137238
!!!URL-scan: http://repozytorium.nifc.pl/skany/pl-kk-nut--i-497
!!!ONB-nifc:
!!!AIN: 1 alto 1 empty 1 tenor 1 vox
!!!key:
**kern	**text	**dynam	**kern	**text	**dynam	**kern	**text	**dynam	**kern	**text	**dynam
*part4	*part4	*part4	*part3	*part3	*part3	*part2	*part2	*part2	*part1	*part1	*part1
*staff4	*staff4	*	*staff3	*staff3	*	*staff2	*staff2	*	*staff1	*staff1	*
*Iempty	*	*	*Itenor	*	*	*Ialto	*	*	*Ivox	*	*
*I"Baſso	*	*	*I"Tenore.	*	*	*I"Alto.	*	*	*I"Canto.	*	*
*I'B.	*	*	*I'T.	*	*	*I'A.	*	*	*I'C.	*	*
*clefF4	*	*	*clefC4	*	*	*clefC3	*	*	*clefC1	*	*
*k[b-e-]	*	*	*k[b-e-]	*	*	*k[b-e-]	*	*	*k[b-e-]	*	*
*B-:	*	*	*B-:	*	*	*B-:	*	*	*B-:	*	*
*M3/4	*	*	*M3/4	*	*	*M3/4	*	*	*M3/4	*	*
*	*	*	*	*	*	*	*	*	*	*	*below
=1	=1	=1	=1	=1	=1	=1	=1	=1	=1	=1	=1
*2\right	*	*	*2\right	*	*	*2\right	*	*	*2\right	*	*
!LO:TX:t=P:problem=all\right&colon; global	!	!LO:DY:rj	!LO:TX:t=P:problem=all\right&colon; global	!	!	!LO:TX:t=P:problem=all\right&colon; global	!	!	!LO:TX:t=P:problem=all\right&colon; global	!	!
2.B-\	O	p	2.B-\	O	p	2.d\	o	p	2.b-\	O	p
=2	=2	=2	=2	=2	=2	=2	=2	=2	=2	=2	=2
2.F\	.	.	4B-\	.	.	2f\	.	.	2cc\	.	.
.	.	.	4.A\	.	.	.	.	.	.	.	.
.	.	.	.	.	.	8f\L	.	.	8ff\L	.	.
.	.	.	8c\	.	.	8a\J	.	.	8ee-\J	.	.
=3	=3	=3	=3	=3	=3	=3	=3	=3	=3	=3	=3
4G\	sa-	.	8c\L	sa-	.	2g\	sa-	.	8.ee-\L	sa-	.
.	.	.	8B-\J	.	.	.	.	.	.	.	.
.	.	.	.	.	.	.	.	.	16dd\Jk	.	.
2G\	-crum	.	2B-\	-crum	.	.	.	.	2dd\	-crum	.
.	.	.	.	.	.	4g\	-crum	.	.	.	.
=4	=4	=4	=4	=4	=4	=4	=4	=4	=4	=4	=4
!	!	!LO:DY:rj	!	!	!LO:DY:rj:t=fo	!	!	!	!	!	!
4E-\	con-	f	2e-\	con-	f	2.b-\	con-	.	2gg\	con-	f
4G\	.	.	.	.	.	.	.	.	.	.	.
4B-\	.	.	8d\L	.	.	.	.	.	8ff\L	.	.
.	.	.	8e-\J	.	.	.	.	.	8gg\J	.	.
=5	=5	=5	=5	=5	=5	=5	=5	=5	=5	=5	=5
!	!	!	!	!	!	!	!	!LO:DY:rj:t=fo	!	!	!
2F\	.	.	4d\	.	.	4cc\	.	f	4ff\	.	.
.	.	.	4c\	.	.	4a\	.	.	4ee-\	.	.
4G\	.	.	4B-\	.	.	4b-\	.	.	4dd\	.	.
!	!	!	!LO:LB:g=original	!	!	!	!	!	!	!	!
=6	=6	=6	=6	=6	=6	=6	=6	=6	=6	=6	=6
2F\	-vi-	.	4B-\	-vi-	.	(2f\	-vi-	.	4dd\	-vi-	.
!	!	!	!	!	!	!	!	!	!LO:LB:g=original	!	!
.	.	.	8d\L	.	.	.	.	.	8ff\L	.	.
.	.	.	8c\J	.	.	.	.	.	8ee-\J	.	.
4F\	-vi-	.	8B-\L	-vi-	.	8f\	.	.	8dd\L	-vi-	.
.	.	.	8A\J	.	.	8e-\)	-vi-	.	8cc\J	.	.
!	!	!	!	!	!	!LO:LB:g=original	!	!	!	!	!
=7	=7	=7	=7	=7	=7	=7	=7	=7	=7	=7	=7
2.BB-/	-um	.	2.B-\	-um	.	2.d\	-um	.	2.b-\	-um	.
!LO:LB:g=original	!	!	!	!	!	!	!	!	!	!	!
=8	=8	=8	=8	=8	=8	=8	=8	=8	=8	=8	=8
!	!	!LO:DY:rj	!LO:TX:a:t=1.	!	!	!LO:TX:a:t=1.	!	!	!LO:TX:a:t=1.	!	!
4B-\	in	p	2.r	.	.	2.r	.	.	2.r	.	.
4A\	.	.	.	.	.	.	.	.	.	.	.
4G\	quo	.	.	.	.	.	.	.	.	.	.
=9	=9	=9	=9	=9	=9	=9	=9	=9	=9	=9	=9
2F\	in	.	4c\	in	p	4a\	in	.	4ee-\	in	p
.	.	.	4B-\	.	.	4b-\	.	.	4dd\	.	.
4E-\	quo	.	4A\	quo	.	4f\	quo	.	4cc\	quo	.
=10	=10	=10	=10	=10	=10	=10	=10	=10	=10	=10	=10
2D\	Chri-	.	2B-\	Chri-	.	2f\	Chri-	.	2ff\	Chri-	.
4E-\	-stus	.	4B-\	-stus	.	8e-\L	-stus	.	8gg\L	-stus	.
.	.	.	.	.	.	8g\J	.	.	8ee-\J	.	.
=11	=11	=11	=11	=11	=11	=11	=11	=11	=11	=11	=11
8.F\	su-	.	8.B-\	su-	.	8f\	su-	.	8.dd\	su-	.
.	.	.	.	.	.	8f\	-mi-	.	.	.	.
16F\	-mi-	.	16A\	-mi-	.	.	.	.	16cc\	-mi-	.
2F\	-tur	.	2A\	-tur	.	2f;\	-tur	.	2cc\	-tur	.
=12	=12	=12	=12	=12	=12	=12	=12	=12	=12	=12	=12
!	!	!	!	!	!	!	!	!	!LO:TX:a:t=3.	!	!
!LO:N:vis=0	!	!	!	!	!	!LO:N:vis=0	!	!	!LO:N:vis=0	!	!
1.r	.	.	2c\	re-	.	1.r	.	.	1.r	.	.
.	.	.	8d\L	.	.	.	.	.	.	.	.
.	.	.	8B-\J	.	.	.	.	.	.	.	.
!	!	!	!LO:LB:g=original	!	!	!	!	!	!	!	!
=13	=13	=13	=13	=13	=13	=13	=13	=13	=13	=13	=13
.	.	.	2A\	.	.	.	.	.	.	.	.
.	.	.	16qqB-/LL	.	.	.	.	.	.	.	.
.	.	.	16qqA/JJ	.	.	.	.	.	.	.	.
.	.	.	16c\LL	.	.	.	.	.	.	.	.
.	.	.	16B-\	.	.	.	.	.	.	.	.
.	.	.	16A\	.	.	.	.	.	.	.	.
.	.	.	16G\JJ	.	.	.	.	.	.	.	.
=14	=14	=14	=14	=14	=14	=14	=14	=14	=14	=14	=14
4r	.	.	8.G/	-co-	.	2.r	.	.	2.r	.	.
.	.	.	16F/	-li-	.	.	.	.	.	.	.
!	!	!LO:DY:rj	!LO:SIC:o:t:=:v:tur	!	!	!	!	!	!	!	!
2F\	me-	p	2F/	-mur	.	.	.	.	.	.	.
!	!	!	!	!	!	!	!	!	!LO:LB:g=original	!	!
=15	=15	=15	=15	=15	=15	=15	=15	=15	=15	=15	=15
!	!	!	!	!	!	!	!	!LO:DY:rj	!	!	!
2.F\	.	.	2d\	me-	.	2.f\	me-	p	2ff\	me-	.
.	.	.	8c\L	.	.	.	.	.	8een\L	.	.
.	.	.	8B-\J	.	.	.	.	.	8dd\J	.	.
!LO:LB:g=original	!	!	!	!	!	!LO:LB:g=original	!	!	!	!	!
=16	=16	=16	=16	=16	=16	=16	=16	=16	=16	=16	=16
8.F\	-mo-	.	8.B-\	-mo-	.	8f\	-mo-	.	8dd\	-mo-	.
.	.	.	.	.	.	8f\	-ri-	.	8cc\	-ri-	.
16F\	-ri-	.	16A\	-ri-	.	.	.	.	.	.	.
2F\	-am	.	2A\	-am,	.	2f\	-am	.	2cc\	-am	.
=17	=17	=17	=17	=17	=17	=17	=17	=17	=17	=17	=17
!	!	!	!	!	!	!	!	!	!LO:TX:a:t=1.	!	!
2.r	.	.	4B-\	pa-	.	2.r	.	.	2.r	.	.
.	.	.	8qc/	.	.	.	.	.	.	.	.
.	.	.	16B-\LL	.	.	.	.	.	.	.	.
.	.	.	16A\	.	.	.	.	.	.	.	.
.	.	.	16B-\	.	.	.	.	.	.	.	.
.	.	.	16c\JJ	.	.	.	.	.	.	.	.
.	.	.	8d\	.	.	.	.	.	.	.	.
.	.	.	8d\	-si-	.	.	.	.	.	.	.
!	!	!	!LO:LB:g=original	!	!	!	!	!	!	!	!
=18	=18	=18	=18	=18	=18	=18	=18	=18	=18	=18	=18
8.C/	pa-	.	4c\	-o-	.	8g\	pa-	.	8.een\	pa-	.
.	.	.	.	.	.	8g\	-si-	.	.	.	.
16C/	-si-	.	.	.	.	.	.	.	16ee\	-si-	.
4C/	-o-	.	4B-\	.	.	4g\	-o-	.	4ee\	-o-	.
4D/	-nis	.	4A\	-nis	.	4f\	-nis	.	4ff\	-nis	.
=19	=19	=19	=19	=19	=19	=19	=19	=19	=19	=19	=19
4BB-/	e-	.	8B-\L	e-	.	2f\	e-	.	8dd\L	e-	.
.	.	.	8A\J	.	.	.	.	.	8cc\J	.	.
2C/	.	.	4.A\	.	.	.	.	.	4.cc\	.	.
.	.	.	.	.	.	8f\L	.	.	.	.	.
.	.	.	8G/	.	.	8en\J	.	.	8b-\	.	.
=20	=20	=20	=20	=20	=20	=20	=20	=20	=20	=20	=20
4F\	-jus	.	4F/	-jus	.	4f\	-jus	.	4a\	-jus	.
!	!	!	!	!	!	!	!	!	!LO:LB:g=original	!	!
4r	.	.	4A\	pa-	.	4f\	pa-	.	4cc\	pa-	.
4r	.	.	4c\	-si-	.	4f\	-si-	.	4ee-X\	-si-	.
=21	=21	=21	=21	=21	=21	=21	=21	=21	=21	=21	=21
4r	.	.	4c\	-o-	.	2.f\	-o-	.	2.dd\	-o-	.
8B-\L	pa-	.	2B-\	.	.	.	.	.	.	.	.
8A\J	.	.	.	.	.	.	.	.	.	.	.
8G\L	-si-	.	.	.	.	.	.	.	.	.	.
8F\J	.	.	.	.	.	.	.	.	.	.	.
!LO:LB:g=original	!	!	!	!	!	!LO:LB:g=original	!	!	!	!	!
=22	=22	=22	=22	=22	=22	=22	=22	=22	=22	=22	=22
8En\L	-o-	.	4B-\	.	.	4g\	.	.	2.cc\	.	.
8C\J	.	.	.	.	.	.	.	.	.	.	.
8F\L	.	.	2A\	.	.	2f\	.	.	.	.	.
8G\	.	.	.	.	.	.	.	.	.	.	.
8A\	.	.	.	.	.	.	.	.	.	.	.
8F\J	-nis	.	.	.	.	.	.	.	.	.	.
=23	=23	=23	=23	=23	=23	=23	=23	=23	=23	=23	=23
8D\L	e-	.	4A/	.	.	4f\	.	.	2b-\	.	.
8F\	.	.	.	.	.	.	.	.	.	.	.
8En\	.	.	4G/	.	.	4g\	.	.	.	.	.
8G\J	.	.	.	.	.	.	.	.	.	.	.
8C\L	.	.	4G/	-nis	.	8en\L	-nis	.	4b-\	-nis	.
8En\J	.	.	.	.	.	8c\J	.	.	.	.	.
!	!	!	!LO:LB:g=original	!	!	!	!	!	!	!	!
=24	=24	=24	=24	=24	=24	=24	=24	=24	=24	=24	=24
4F\	-jus	.	8F/L	e-	.	8c\L	e-	.	8a\L	e-	.
.	.	.	8G/J	.	.	8f\J	.	.	8b-\	.	.
4r	.	.	8A\L	.	.	2f\	.	.	8cc\	.	.
.	.	.	8B-\J	.	.	.	.	.	8dd\	.	.
4r	.	.	8c\L	.	.	.	.	.	8een\	.	.
.	.	.	8d\J	.	.	.	.	.	8ff\J	.	.
=25	=25	=25	=25	=25	=25	=25	=25	=25	=25	=25	=25
.	.	.	8qc/	.	.	.	.	.	.	.	.
4BB-/	e-	.	8B-\L	.	.	4f\	.	.	16een\LL	.	.
.	.	.	.	.	.	.	.	.	16dd\	.	.
.	.	.	16A\L	.	.	.	.	.	16cc\	.	.
.	.	.	16G\JJ	.	.	.	.	.	16b-\JJ	.	.
2C/	.	.	4F/	.	.	2c\	.	.	4a\	.	.
.	.	.	4En/	.	.	.	.	.	4g\	.	.
!	!	!	!	!	!	!	!	!	!LO:LB:g=original	!	!
=26	=26	=26	=26	=26	=26	=26	=26	=26	=26	=26	=26
4F\	-jus	.	4F/	-jus	.	4f\	-jus	.	4f\	-jus	.
!	!	!	!	!	!LO:DY:rj	!	!	!	!	!	!LO:DY:rj
4A\	mens	.	4A\	mens	f	4a\	mens	.	4a\	mens	f
4c\	im-	.	4c\	im-	.	4cc\	im-	.	4cc\	im-	.
!LO:LB:g=original	!	!	!	!	!	!	!	!	!	!	!
=27	=27	=27	=27	=27	=27	=27	=27	=27	=27	=27	=27
2D\	-ple-	.	2A\	-ple-	.	2f\	-ple-	.	2ff\	-ple-	.
4BB-/	-tur	.	8B-\L	-tur	.	8f\L	-tur	.	8dd\L	-tur	.
.	.	.	8B-\J	.	.	8d\J	.	.	8gg\J	.	.
!	!	!	!	!	!	!LO:LB:g=original	!	!	!	!	!
=28	=28	=28	=28	=28	=28	=28	=28	=28	=28	=28	=28
[2C/	gra-	.	4A/	gra-	.	4f\	gra-	.	4ff\	gra-	.
.	.	.	4.G/	.	.	4.b-\	.	.	4.een\	.	.
!LO:N:xstem:cue	!	!	!	!	!	!	!	!	!	!	!
8C/]	.	.	.	.	.	.	.	.	.	.	.
8C/	-ti-	.	8G/	-ti-	.	8a\	-ti-	.	8ee\	-ri-	.
=29	=29	=29	=29	=29	=29	=29	=29	=29	=29	=29	=29
2.F;\	-a,	.	2.F;/	-a.	.	2.a;\	-a	.	2.ff;\	-a	.
!	!	!	!LO:LB:g=original	!	!	!	!	!	!	!	!
=30||	=30||	=30||	=30||	=30||	=30||	=30||	=30||	=30||	=30||	=30||	=30||
!	!	!	!LO:TX:a:t=1	!	!	!	!	!	!	!	!
2.r	.	.	2.r	.	.	4c\	et	.	4cc\	et	.
.	.	.	.	.	.	4f\	.	.	4ff\	.	.
.	.	.	.	.	.	4f\	fu-	.	4ff\	fu-	.
=31	=31	=31	=31	=31	=31	=31	=31	=31	=31	=31	=31
4r	.	.	4r	.	.	4f\	-tu-	.	8ff\L	-tu-	.
.	.	.	.	.	.	.	.	.	8ee-X\J	.	.
4G\	et	.	4B-\	et	.	2b-\	-re	.	2ee-\	-re	.
4G\	fu-	.	4B-\	fu-	.	.	.	.	.	.	.
!	!	!	!	!	!	!	!	!	!LO:LB:g=original	!	!
=32	=32	=32	=32	=32	=32	=32	=32	=32	=32	=32	=32
2F#X\	-tu-	.	2A\	-tu-	.	4cc\	fu-	.	4ee-\	fu-	.
.	.	.	.	.	.	4d\	-tu-	.	8dd\L	-tu-	.
.	.	.	.	.	.	.	.	.	8ee-\J	.	.
4F#\	-re	.	4A\	-re	.	4d\	-re	.	8dd\L	-re	.
.	.	.	.	.	.	.	.	.	8cc\J	.	.
=33	=33	=33	=33	=33	=33	=33	=33	=33	=33	=33	=33
8.G\	glo-	.	8.A\	glo-	.	8.d\	glo-	.	8.cc\	glo-	.
16G\	-ri-	.	16G\	-ri-	.	16d\	-ri-	.	16b-\	-ri-	.
!LO:LB:g=original	!	!	!	!	!	!	!	!	!	!	!
8G\	-e	.	8G\	-e	.	8d\	-e	.	4b-\	-e	.
8B-\	fu-	.	8d\	fu-	.	8d\	fu-	.	.	.	.
!	!	!	!	!	!	!LO:LB:g=original	!	!	!	!	!
8A\	-tu-	.	8c\	-tu-	.	8d\	-tu-	.	4r	.	.
8G\	-re	.	8B-\	-re	.	8d\	-re	.	.	.	.
=34	=34	=34	=34	=34	=34	=34	=34	=34	=34	=34	=34
2.Fn\	glo-	.	4.A\	glo-	.	2.f\	glo-	.	2.ee-\	glo-	.
.	.	.	8B-\	.	.	.	.	.	.	.	.
.	.	.	8qd/	.	.	.	.	.	.	.	.
.	.	.	8c\L	.	.	.	.	.	.	.	.
.	.	.	16B-\L	.	.	.	.	.	.	.	.
.	.	.	16A\JJ	.	.	.	.	.	.	.	.
=35	=35	=35	=35	=35	=35	=35	=35	=35	=35	=35	=35
4G\	.	.	4.B-\	.	.	2.b-\	.	.	4.dd\	.	.
8F\L	.	.	.	.	.	.	.	.	.	.	.
8E-\	.	.	8c\	.	.	.	.	.	8ee-\	.	.
!	!	!	!LO:LB:g=original	!	!	!	!	!	!	!	!
.	.	.	8qe-/	.	.	.	.	.	8qqgg/	.	.
8D\	.	.	8d\L	.	.	.	.	.	8ff\L	.	.
8E-\J	.	.	16c\L	.	.	.	.	.	16ee-\L	.	.
.	.	.	16B-\JJ	.	.	.	.	.	16dd\JJ	.	.
=36	=36	=36	=36	=36	=36	=36	=36	=36	=36	=36	=36
4.F\	.	.	8.B-\	.	.	8.f\	.	.	8.dd\	.	.
.	.	.	16A\	-ri-	.	16f\	-ri-	.	16cc\	-ri-	.
.	.	.	2A\	-e	.	2f\	-e	.	2cc\	-e	.
8E-\L	.	.	.	.	.	.	.	.	.	.	.
8D\	.	.	.	.	.	.	.	.	.	.	.
8C\J	-ri-	.	.	.	.	.	.	.	.	.	.
!	!	!	!	!	!	!	!	!	!LO:LB:g=original	!	!
=37	=37	=37	=37	=37	=37	=37	=37	=37	=37	=37	=37
!	!	!	!LO:N:vis=0	!	!	!LO:N:vis=0	!	!	!	!	!
4BB-/	-e	.	1.r	.	.	1.r	.	.	4.b-\	no-	.
4r	.	.	.	.	.	.	.	.	.	.	.
.	.	.	.	.	.	.	.	.	8cc\L	.	.
4r	.	.	.	.	.	.	.	.	8b-\	.	.
.	.	.	.	.	.	.	.	.	8a\J	.	.
!LO:LB:g=original	!	!	!	!	!	!	!	!	!	!	!
=38	=38	=38	=38	=38	=38	=38	=38	=38	=38	=38	=38
!LO:N:vis=0	!	!	!	!	!	!	!	!	!	!	!
1.r	.	.	.	.	.	.	.	.	8g\L	.	.
.	.	.	.	.	.	.	.	.	8f\	.	.
.	.	.	.	.	.	.	.	.	8g\	.	.
.	.	.	.	.	.	.	.	.	8a\	.	.
.	.	.	.	.	.	.	.	.	8b-\	.	.
.	.	.	.	.	.	.	.	.	8cc\J	-bis	.
=39	=39	=39	=39	=39	=39	=39	=39	=39	=39	=39	=39
!	!	!	!	!	!LO:DY:rj	!	!	!	!	!	!
.	.	.	4.B-\	no-	p	2.f\	no-	.	4.dd\	no-	.
.	.	.	8c\L	.	.	.	.	.	8ee-\L	.	.
.	.	.	8B-\	.	.	.	.	.	8dd\	.	.
.	.	.	8A\J	.	.	.	.	.	8cc\J	.	.
=40	=40	=40	=40	=40	=40	=40	=40	=40	=40	=40	=40
2.r	.	.	8G\L	.	.	2f\	.	.	8b-\L	.	.
.	.	.	8F\	.	.	.	.	.	8a\	.	.
.	.	.	8G\	.	.	.	.	.	8b-\	.	.
.	.	.	8A\	.	.	.	.	.	8cc\	.	.
.	.	.	8B-\	.	.	4f\	-bis	.	8dd\	.	.
.	.	.	8c\J	-bis	.	.	.	.	8ee-\J	-bis	.
!	!	!	!	!	!	!LO:LB:g=original	!	!	!	!	!
=41	=41	=41	=41	=41	=41	=41	=41	=41	=41	=41	=41
!	!	!LO:DY:rj	!	!	!	!	!	!	!	!	!
4.B-\	no-	f	4.d\	no-	f	2.f\	no-	.	2.ff\	no-	.
8c\L	.	.	8e-\L	.	.	.	.	.	.	.	.
8B-\	.	.	8d\	.	.	.	.	.	.	.	.
8A\J	.	.	8c\J	.	.	.	.	.	.	.	.
!	!	!	!LO:LB:g=original	!	!	!	!	!	!LO:LB:g=original	!	!
=42	=42	=42	=42	=42	=42	=42	=42	=42	=42	=42	=42
8G\L	.	.	8B-\L	.	.	2f\	.	.	2ff\	.	.
8F\	.	.	8A\J	.	.	.	.	.	.	.	.
8E-\	.	.	8G/L	.	.	.	.	.	.	.	.
8D\	.	.	8F/	.	.	.	.	.	.	.	.
8C\	.	.	8E-/	.	.	4f\	-bis	.	4ff\	-bis	.
8BB-\J	-bis	.	8D/J	-bis	.	.	.	.	.	.	.
=43	=43	=43	=43	=43	=43	=43	=43	=43	=43	=43	=43
4AA/	pi-	.	4C/	pi-	.	4f\	pi-	.	4ff\	pi-	.
4AA/	-gnus	.	4c\	-gnus	.	4f\	-gnus	.	4ff\	-gnus	.
4AA/	da-	.	4c\	da-	.	4f\	da-	.	16ff\LL	da-	.
.	.	.	.	.	.	.	.	.	16ee-\	.	.
.	.	.	.	.	.	.	.	.	16dd\	.	.
.	.	.	.	.	.	.	.	.	16ee-\JJ	.	.
=44	=44	=44	=44	=44	=44	=44	=44	=44	=44	=44	=44
4BB-/	-tur	.	4B-\	-tur	.	4f\	-tur	.	4dd\	-tur	.
.	.	.	8qc/	.	.	.	.	.	.	.	.
4r	.	.	16B-\LL	no-	.	4r	.	.	4r	.	.
.	.	.	16A\	.	.	.	.	.	.	.	.
.	.	.	16B-\	.	.	.	.	.	.	.	.
.	.	.	16c\JJ	.	.	.	.	.	.	.	.
.	.	.	8qe-/	.	.	.	.	.	.	.	.
4r	.	.	16d\LL	.	.	4r	.	.	4r	.	.
.	.	.	16c\	.	.	.	.	.	.	.	.
.	.	.	16d\	.	.	.	.	.	.	.	.
.	.	.	16e-\JJ	.	.	.	.	.	.	.	.
!LO:LB:g=original	!	!	!	!	!	!	!	!	!	!	!
=45	=45	=45	=45	=45	=45	=45	=45	=45	=45	=45	=45
.	.	.	8qg/	.	.	.	.	.	.	.	.
2.r	.	.	4f\	.	.	2.r	.	.	2.r	.	.
.	.	.	8e-\L	.	.	.	.	.	.	.	.
.	.	.	8d\	.	.	.	.	.	.	.	.
.	.	.	8c\	.	.	.	.	.	.	.	.
.	.	.	8B-\J	-bis	.	.	.	.	.	.	.
=46	=46	=46	=46	=46	=46	=46	=46	=46	=46	=46	=46
8BB-/	pi-	.	2.A-X/	da-	.	8f\	pi-	.	8dd\	pi-	.
8BB-/	-gnus	.	.	.	.	8f\	-gnus	.	8dd\	-gnus	.
2BB-/	da-	.	.	.	.	2f\	da-	.	2dd\	da-	.
!	!	!	!LO:LB:g=original	!	!	!LO:LB:g=original	!	!	!	!	!
=47	=47	=47	=47	=47	=47	=47	=47	=47	=47	=47	=47
4E-\	-tur	.	4G/	-tur	.	4e-\	-tur	.	2ee-\	-tur	.
8G\L	no-	.	4r	.	.	4r	.	.	.	.	.
8F\	.	.	.	.	.	.	.	.	.	.	.
8E-\	.	.	4r	.	.	4r	.	.	4r	.	.
8D\J	-bis	.	.	.	.	.	.	.	.	.	.
!	!	!	!	!	!	!	!	!	!LO:LB:g=original	!	!
=48	=48	=48	=48	=48	=48	=48	=48	=48	=48	=48	=48
2C/	pi-	.	2B-\	pi-	.	2g\	pi-	.	2een\	pi-	.
4C/	-gnus	.	4B-\	-gnus	.	4en\	-gnus	.	4gg\	-gnus	.
=49	=49	=49	=49	=49	=49	=49	=49	=49	=49	=49	=49
2.F\	da-	.	2An\	da-	.	2.f\	da-	.	2cc\	da-	.
.	.	.	8B-\L	.	.	.	.	.	8dd\L	.	.
.	.	.	8A\J	.	.	.	.	.	8cc\J	.	.
=50	=50	=50	=50	=50	=50	=50	=50	=50	=50	=50	=50
2.F;\	-tur	.	2.A;\	-tur	.	2.f;\	-tur	.	2.cc;\	-tur	.
=51	=51	=51	=51	=51	=51	=51||	=51	=51	=51	=51	=51
!	!	!	!LO:TX:a:t=1.	!	!	!	!	!	!	!	!
2.r	.	.	2.r	.	.	2.r	.	.	4gg\	a-	.
.	.	.	.	.	.	.	.	.	8ff\L	.	.
.	.	.	.	.	.	.	.	.	8ee-\J	.	.
.	.	.	.	.	.	.	.	.	8dd\L	.	.
.	.	.	.	.	.	.	.	.	8cc\J	.	.
=52	=52	=52	=52	=52	=52	=52	=52	=52	=52	=52	=52
4F\	al-	.	2.F/	al-	.	2c\	al-	.	4b-\	-le-	.
4E-\	.	.	.	.	.	.	.	.	4a\	-lu-	.
4D\	.	.	.	.	.	4B-\	.	.	4b-\	-ia	.
!LO:LB:g=original	!	!	!	!	!	!	!	!	!LO:LB:g=original	!	!
=53	=53	=53	=53	=53	=53	=53	=53	=53	=53	=53	=53
4E-\	-le-	.	4e-\	.	.	2b-\	.	.	4gg\	a-	.
2F\	-lu-	.	4.d\	-le-	.	.	.	.	4.ff\	-le-	.
.	.	.	.	.	.	8b-\	-le-	.	.	.	.
.	.	.	8c\	-lu-	.	8a\	-lu-	.	8ee-\	-lu-	.
!	!	!	!	!	!	!LO:LB:g=original	!	!	!	!	!
=54	=54	=54	=54	=54	=54	=54	=54	=54	=54	=54	=54
2.G\	-ia	.	2.B-\	-ia	.	2.b-\	-ia	.	2.dd\	-ia	.
!	!	!	!LO:LB:g=original	!	!	!	!	!	!	!	!
=55	=55	=55	=55	=55	=55	=55	=55	=55	=55	=55	=55
!	!	!	!LO:TX:a:t=3	!	!	!LO:N:vis=0	!	!	!LO:N:vis=0	!	!
!	!	!LO:DY:rj	!LO:N:vis=0	!	!	!	!	!	!	!	!
4E-\	al-	f	1.r	.	.	1.r	.	.	1.r	.	.
4G\	.	.	.	.	.	.	.	.	.	.	.
4B-\	.	.	.	.	.	.	.	.	.	.	.
=56	=56	=56	=56	=56	=56	=56	=56	=56	=56	=56	=56
2.e-\	-le-	.	.	.	.	.	.	.	.	.	.
=57	=57	=57	=57	=57	=57	=57	=57	=57	=57	=57	=57
4.e-\	.	.	2.r	.	.	2.r	.	.	2.r	.	.
8B-\	.	.	.	.	.	.	.	.	.	.	.
16A\LL	-lu-	.	.	.	.	.	.	.	.	.	.
16G\	.	.	.	.	.	.	.	.	.	.	.
16F\	-ia	.	.	.	.	.	.	.	.	.	.
16E-\JJ	.	.	.	.	.	.	.	.	.	.	.
=58	=58	=58	=58	=58	=58	=58	=58	=58	=58	=58	=58
2.BB-/	al-	.	2.B-\	al-	.	2f\	al-	.	2.dd\	al-	.
.	.	.	.	.	.	4b-\	.	.	.	.	.
=59	=59	=59	=59	=59	=59	=59	=59	=59	=59	=59	=59
2.BB-/	.	.	2c\	.	.	2.a\	-le-	.	2.ee-\	.	.
.	.	.	4c\	.	.	.	.	.	.	.	.
=60	=60	=60	=60	=60	=60	=60	=60	=60	=60	=60	=60
4.BB-/	-le-	.	4.d\	-le-	.	2a-X\	.	.	4.ff\	-le-	.
8B-\	.	.	8B-\L	.	.	.	.	.	8dd\L	.	.
4B-\	-lu-	.	8c\	.	.	8a-\	.	.	8ee-\	.	.
.	.	.	8d\J	-lu-	.	8a-\	-lu-	.	8ff\J	-lu-	.
!LO:LB:g=original	!	!	!	!	!	!	!	!	!	!	!
=61	=61	=61	=61	=61	=61	=61	=61	=61	=61	=61	=61
2E-;\	-ia	.	2e-;\	-ia	.	2g;\	-ia	.	2gg;\	-ia	.
4E-\	al-	.	8c\L	al-	.	4g\	al-	.	8ee-\L	al-	.
.	.	.	16e-\L	.	.	.	.	.	16gg\L	.	.
.	.	.	16c\JJ	.	.	.	.	.	16ee-\JJ	.	.
!	!	!	!	!	!	!	!	!	!LO:LB:g=original	!	!
=62	=62	=62	=62	=62	=62	=62	=62	=62	=62	=62	=62
2.F\	-le-	.	2.B-\	-le-	.	2.f\	-le-	.	2.dd\	-le-	.
!	!	!	!	!	!	!LO:LB:g=original	!	!	!	!	!
=63	=63	=63	=63	=63	=63	=63	=63	=63	=63	=63	=63
2F\	.	.	2A\	.	.	2f\	.	.	2cc\	.	.
4F\	-lu-	.	4A\	-lu-	.	4e-X\	-lu-	.	4cc\	-lu-	.
=64	=64	=64	=64	=64	=64	=64	=64	=64	=64	=64	=64
2.BB-/	-ia.	.	2.B-\	-ia	.	2.d\	-ia.	.	2.b-\	-ia.	.
==	==	==	==	==	==	==	==	==	==	==	==
*-	*-	*-	*-	*-	*-	*-	*-	*-	*-	*-	*-
!!!system-decoration: [(s1,s2,s3,s4)]
!!!EED: Leszek Kubiak
!!!EEV: 2021-01-02
!!!ENC: Andrzej Gręziak
!!!END: 2020-12-30
